X:164
T:Miss Poultney's Delight THO3.164
O:England;London
M:2/4
L:1/16
Z:vmp. Peter Dunk 2011.from a transcription by Fynn Titford-Mock 2006-9
B:Thompson's Compleat Collection of 200 Favourite Country Dances Vol. III.1765-72
Q:1/4=130
K:G
Bc|d2G2B2G2|F2A2 -A2Bc|d2G2B2G2|BcdB B2G2|
cdec ABcA|F2A2 -A2Bc|d2g2 ABcA|B2G2 -G2:|
|:gf|g2d2 gabg|g2d2 -d2cB|cdec ABcA|F2A2 -A2Bc|
d2ef g2fg|agfe dcBA|B2g2 ABcA|B2G2 -G2:|

